public/showcase/resources/images/home/airbus.svg

<svg height="19" viewBox="0 0 109 19" width="109" xmlns="http://www.w3.org/2000/svg" xmlns:xlink="http://www.w3.org/1999/xlink"><mask id="a" fill="#fff"><path d="m0 .33200968v9.47425806h17.832284v-9.47425806z" fill="none"/></mask><mask id="b" fill="#fff"><path d="m0 .33225484v7.81390322h14.5982309v-7.81390322z" fill="none"/></mask><g fill="#fff" fill-rule="evenodd" transform=""><path d="m17.646984 9.37619355c-.0921861-4.68809678-3.6955638-8.49729032-8.13035634-8.49729032-4.43537234 0-7.94598404 3.90664516-7.94598404 8.59535483h-1.57064362c0-5.17719354 3.88051596-9.37680645 8.77739894-9.47425806 4.89688296 0 8.96235106 4.1996129 8.96235106 9.37619355z"/><path d="m17.892234 9.03970968c0-3.80919355-2.8641489-6.83693549-6.4675266-6.83693549-3.60337761 0-6.19038825 3.02774194-6.19038825 6.83693549h-1.75559575c0-4.29767742 3.32623937-7.71645162 7.3917075-7.81390323 3.9727021 0 7.2067553 3.90664516 7.2989414 7.71583871z"/><path d="m17.557117 9.02254839c0-2.7347742-2.2176861-4.98106452-4.896883-4.98106452-2.67919677 0-4.61974464 2.24629032-4.61974464 5.07912903h-1.66282979c0-3.32132258 2.40205852-6.05609677 5.54334573-6.05609677 3.141867 0 5.6361117 2.73477419 5.7288777 5.95803226z"/><path d="m.18472021.43007419c0 4.68809678 3.60337766 8.49729033 8.03817022 8.49729033 4.52755847 0 8.03874997-3.90664517 8.03874997-8.59535484h1.5706436c0 5.17658064-3.9732819 9.47425806-8.87016485 9.47425806-4.89688298 0-8.86958511-4.1996129-8.96235106-9.37619355z" mask="url(#a)" transform="translate(0 9.193548)"/><path d="m.18472021.33225484c0 3.80919355 2.86414894 6.83693548 6.4675266 6.83693548 3.60337769 0 6.28257449-3.02774193 6.19038829-6.83693548h1.7555958c0 4.29767742-3.3262394 7.81390322-7.29894154 7.81390322-4.06546808 0-7.29952127-3.90664516-7.29952127-7.7158387z" mask="url(#b)" transform="translate(0 9.193548)"/><path d="m0 9.2916129c.09218617 2.7347742 2.30987234 4.9810645 4.89688298 4.9810645 2.67919681 0 4.61974468-2.2462903 4.61974468-5.07912901h1.66282974c0 3.32132261-2.40205846 6.05609681-5.5433457 6.05609681-3.14128723 0-5.6361117-2.6373226-5.6361117-5.9580323"/><path d="m26.6516596 16.365129.8314149-1.9533225h4.6197446l.2771383 1.9533225h4.6197447l-2.5870106-15.13932255h-4.7119309l-7.6688457 15.13932255zm5.1740213-5.079129h-2.9569149l2.4026383-5.46954839z"/><path d="m38.8457447 16.365129 2.4948244-15.13932255h4.7119309l-2.4948245 15.13932255z"/><path d="m50.9105372 16.365129.8314149-5.2740322h1.8477819c.5542766 0 1.0163671.0974516 1.2935054.1949032.2771383.1955161.4620904.3910323.5548563.684.0921862.2929677.0921862.6833871 0 1.171871l-.0927659 1.1718709c-.1849521.9769678-.1849521 1.6609678-.1849521 2.0513871h4.8046968v-.4884838c-.0921862 0-.2771383 0-.2771383-.0974517-.0921862-.0974516-.0921862-.2929677 0-.684l.3699042-2.3437419c.0921862-1.0744193.0921862-1.855871-.1849521-2.2469032-.2771383-.487871-.8314149-.87890324-1.6634096-1.26932259.4620904-.09745162.8319947-.29296775 1.2013192-.48848387.4620904-.39041936.8314149-.78145162 1.1085532-1.26932259.3699042-.58654838.5542766-1.17248387.7392287-1.95393548.0921862-.58593548.0921862-1.07441935 0-1.46483871-.0921862-.48848387-.2771383-.87890322-.4620904-1.17187097-.2771383-.39103225-.5542766-.684-.9236011-.97696774-.4620904-.19551613-.9241809-.39103226-1.5706436-.48848387-.6470426-.09745161-1.4784575-.19551613-2.4948245-.19551613h-6.929617l-2.4948245 15.13932255zm1.8477819-11.42758061h2.3098724c.7392287 0 1.2013191.09745161 1.4784574.39103226.1843724.19490322.2771383.58593548.1843724.97635483-.0921862.48848387-.2765585.87890323-.6464628 1.07441936-.2771383.29296774-.8314149.39041935-1.5706436.39041935h-2.2176862z"/><path d="m70.1009149 10.0160645c.9241808 0 1.4784574.1955161 1.7555957.3910323.2771383.2923548.3693245.5859355.2771383 1.0738064-.0921861.3910323-.2771383.7814516-.6464627 1.0744194-.3699043.1955161-.9241809.3910322-1.8483617.3910322h-1.9399681l.4620904-2.9302903zm-.2771383 6.3484516c1.1085532 0 1.8477819-.0974516 2.3098723-.1949032.4620905-.0980645 1.0163671-.2929677 1.4784575-.4884839.5542766-.2929677.923601-.4884838 1.2013191-.7814516.4615107-.2929677.738649-.7814516 1.0157873-1.2699355.3699042-.5859354.5548563-1.1718709.6470425-1.7578064.0921862-.8789032 0-1.6603549-.2771383-2.24690324-.3699042-.6833871-.8314149-1.07380645-1.5706436-1.26932258 1.3856915-.87890323 2.2171064-1.95332258 2.4020585-3.22325807.2771383-1.36738709-.0921862-2.34374193-1.1085532-3.02774193-.7392287-.58593549-1.9405478-.87890323-3.7883298-.87890323h-7.0218032l-2.4948244 15.13870965zm.7392287-11.72054836c.6464628 0 1.1085532.09806452 1.2935053.09806452.2771383.09745161.4620905.29296774.5542766.48787097.1849522.19551612.1849522.48848387.1849522.78145161-.092766.39103226-.2771383.684-.6470426.97696774-.2771383.19551613-.8314149.39041936-1.5706436.39041936h-1.7555958l.4620905-2.7347742z"/><path d="m80.5502973 1.22580645h4.6197447l-1.5706436 9.37619355c-.092766.5859355-.092766 1.0744194 0 1.3673871.0921861.2929677.2771383.5865484.6470425.7814516.3693245.1955161.738649.2929678 1.2007394.2929678.6464628 0 1.2935053-.1955162 1.6628298-.5859355.4620904-.3904194.7398085-1.0744194.9241808-1.855871l1.5706436-9.37619355h4.6197447l-1.4784574 8.88770965c-.1843724 1.0744194-.3693245 1.9539355-.6464628 2.6373226-.2771383.5859355-.6470425 1.171871-1.1085532 1.6603548-.4620904.4884839-1.016367.9769678-1.5706436 1.2699355-.6470425.3904194-1.2940851.684-2.032734.8789033-.8319947.0980645-1.6634096.1955161-2.4948245.1955161-1.016367 0-1.8477819-.0974516-2.5870106-.1955161-.7392288-.1949033-1.2935054-.4884839-1.7555958-.8789033-.5542766-.3904193-.9236011-.7814516-1.2013191-1.2699355-.2765585-.4884838-.4615107-1.1718709-.4615107-1.9533225-.0927659-.4884839 0-1.3673871.1849522-2.4418065z"/><path d="m108.759388 6.01196774h-4.527558c0-.39103226-.184373-.78145161-.369325-.97696774-.277138-.19490323-.647042-.29296774-1.201319-.29296774-.554276 0-1.016367.09806451-1.293505.29296774-.277138.19551613-.369325.39103226-.461511.684 0 .29296774 0 .39041935.184373.58593548.184952.19551613.647042.39041936 1.478457.58593549l1.755596.48848387c1.570643.48848387 2.679197 1.07441935 3.233473 1.85587097.554857.78145159.739229 1.66035479.554857 2.73477419-.184953.8789032-.462091 1.5629032-.924181 2.2462903-.462091.684-1.016367 1.2699355-1.570644 1.6603549-.554277.3910322-1.293505.684-2.12492.9769677-.831995.1955161-1.755596.2929677-2.679777.2929677-.9236008 0-1.8477817-.0974516-2.6791966-.3910322-.8314148-.2929678-1.4784574-.6833871-1.9405478-1.171871-.4615107-.4884839-.8314149-1.0744193-1.016367-1.7578064-.0921862-.4884839-.0921862-1.0744194-.0921862-1.7584194h4.5275585c0 .4884839.1843723.8789032.4615111 1.0744194.277718.2929677.831994.3910322 1.570643.3910322.647043 0 1.109133-.0980645 1.386271-.2935806.277139-.1949032.369325-.3904194.462091-.6833871 0-.2929678 0-.5859355-.184952-.7814516-.184952-.1955162-.647043-.3904194-1.478458-.5859355l-1.570643-.3904194c-.7392291-.1955161-1.570644-.4884838-2.2176865-.8795161-.6464628-.39041935-1.2007394-.87890322-1.4778777-1.56290322-.2771383-.58593549-.2771383-1.26932258-.1849521-2.14822581.1849521-.87890322.4620904-1.56290322.9241809-2.24690322.4615106-.6833871 1.016367-1.17187097 1.6628297-1.56229033.5542766-.48848387 1.2935057-.684 2.0327337-.87890322.739229-.19551613 1.478458-.29358065 2.217107-.29358065.924181 0 1.663409.09806452 2.402638.29358065.739229.19490322 1.200739.48787096 1.66283.78083871.369904.29358064.647042.684.831995 1.07441935.276558.39103226.369324.78145161.46151 1.17248387.092766.39041936.184952.87890323.184952 1.46483871"/></g></svg>

<?xml version="1.0" encoding="UTF-8"?>
<svg width="109px" height="19px" viewBox="0 0 109 19" version="1.1" xmlns="http://www.w3.org/2000/svg" xmlns:xlink="http://www.w3.org/1999/xlink">
    <!-- Generator: sketchtool 45.2 (43514) - http://www.bohemiancoding.com/sketch -->
    <title>3946DE9B-DDF3-4BAD-934F-8D3C2D2674F9</title>
    <desc>Created with sketchtool.</desc>
    <defs>
        <polygon id="path-1" points="0 0.332009677 0 9.80626774 17.832284 9.80626774 17.832284 0.332009677 1.57151645e-20 0.332009677"></polygon>
        <polygon id="path-3" points="0 0.332254839 0 8.14615806 14.5982309 8.14615806 14.5982309 0.332254839 3.14303289e-20 0.332254839"></polygon>
    </defs>
    <g id="Page-1" stroke="none" stroke-width="1" fill="none" fill-rule="evenodd">
        <g id="PrimeReact-Showcase---Homepage" transform="translate(-549.000000, -1127.000000)">
            <g id="homepage" transform="translate(301.000000, 70.000000)">
                <g id="brands" transform="translate(0.000000, 1019.000000)">
                    <g transform="translate(109.000000, 27.000000)" id="airbus">
                        <g transform="translate(139.000000, 11.000000)">
                            <path d="M17.646984,9.37619355 C17.5547979,4.68809677 13.9514202,0.878903226 9.51662766,0.878903226 C5.08125532,0.878903226 1.57064362,4.78554839 1.57064362,9.47425806 L0,9.47425806 C0,4.29706452 3.88051596,0.0974516129 8.77739894,0 C13.6742819,0 17.73975,4.1996129 17.73975,9.37619355 L17.646984,9.37619355 Z" id="Fill-1" fill="#FFFFFF"></path>
                            <path d="M17.892234,9.03970968 C17.892234,5.23051613 15.0280851,2.20277419 11.4247074,2.20277419 C7.82132979,2.20277419 5.23431915,5.23051613 5.23431915,9.03970968 L3.4787234,9.03970968 C3.4787234,4.74203226 6.80496277,1.32325806 10.8704309,1.22580645 C14.843133,1.22580645 18.0771862,5.13245161 18.1693723,8.94164516 L17.892234,9.03970968 Z" id="Fill-3" fill="#FFFFFF"></path>
                            <path d="M17.557117,9.02254839 C17.557117,6.28777419 15.3394309,4.04148387 12.660234,4.04148387 C9.98103723,4.04148387 8.04048936,6.28777419 8.04048936,9.1206129 L6.37765957,9.1206129 C6.37765957,5.79929032 8.77971809,3.06451613 11.9210053,3.06451613 C15.0628723,3.06451613 17.557117,5.79929032 17.649883,9.02254839 L17.557117,9.02254839 Z" id="Fill-5" fill="#FFFFFF"></path>
                            <g id="Group-9" transform="translate(0.000000, 9.193548)">
                                <mask id="mask-2" fill="white">
                                    <use xlink:href="#path-1"></use>
                                </mask>
                                <g id="Clip-8"></g>
                                <path d="M0.184720213,0.430074194 C0.184720213,5.11817097 3.78809787,8.92736452 8.22289043,8.92736452 C12.7504489,8.92736452 16.2616404,5.02071935 16.2616404,0.332009677 L17.832284,0.332009677 C17.832284,5.50859032 13.8590021,9.80626774 8.96211915,9.80626774 C4.06523617,9.80626774 0.0925340426,5.60665484 -0.000231914894,0.430074194 L0.184720213,0.430074194 Z" id="Fill-7" fill="#FFFFFF" mask="url(#mask-2)"></path>
                            </g>
                            <g id="Group-12" transform="translate(0.000000, 9.193548)">
                                <mask id="mask-4" fill="white">
                                    <use xlink:href="#path-3"></use>
                                </mask>
                                <g id="Clip-11"></g>
                                <path d="M0.184720213,0.332254839 C0.184720213,4.14144839 3.04886915,7.16919032 6.65224681,7.16919032 C10.2556245,7.16919032 12.9348213,4.14144839 12.8426351,0.332254839 L14.5982309,0.332254839 C14.5982309,4.62993226 11.2719915,8.14615806 7.29928936,8.14615806 C3.23382128,8.14615806 -0.000231914894,4.2395129 -0.000231914894,0.430319355 L0.184720213,0.332254839 Z" id="Fill-10" fill="#FFFFFF" mask="url(#mask-4)"></path>
                            </g>
                            <path d="M0,9.2916129 C0.0921861702,12.0263871 2.30987234,14.2726774 4.89688298,14.2726774 C7.57607979,14.2726774 9.51662766,12.0263871 9.51662766,9.19354839 L11.1794574,9.19354839 C11.1794574,12.514871 8.77739894,15.2496452 5.6361117,15.2496452 C2.49482447,15.2496452 0,12.6123226 0,9.2916129" id="Fill-13" fill="#FFFFFF"></path>
                            <path d="M26.6516596,16.365129 L27.4830745,14.4118065 L32.1028191,14.4118065 L32.3799574,16.365129 L36.9997021,16.365129 L34.4126915,1.22580645 L29.7007606,1.22580645 L22.0319149,16.365129 L26.6516596,16.365129 Z M31.8256809,11.286 L28.868766,11.286 L31.2714043,5.81645161 L31.8256809,11.286 Z" id="Fill-15" fill="#FFFFFF"></path>
                            <polygon id="Fill-17" fill="#FFFFFF" points="38.8457447 16.365129 41.3405691 1.22580645 46.0525 1.22580645 43.5576755 16.365129"></polygon>
                            <path d="M50.9105372,16.365129 L51.7419521,11.0910968 L53.589734,11.0910968 C54.1440106,11.0910968 54.6061011,11.1885484 54.8832394,11.286 C55.1603777,11.4815161 55.3453298,11.6770323 55.4380957,11.97 C55.5302819,12.2629677 55.5302819,12.6533871 55.4380957,13.141871 L55.3453298,14.3137419 C55.1603777,15.2907097 55.1603777,15.9747097 55.1603777,16.365129 L59.9650745,16.365129 L59.9650745,15.8766452 C59.8728883,15.8766452 59.6879362,15.8766452 59.6879362,15.7791935 C59.59575,15.6817419 59.59575,15.4862258 59.6879362,15.0951935 L60.0578404,12.7514516 C60.1500266,11.6770323 60.1500266,10.8955806 59.8728883,10.5045484 C59.59575,10.0166774 59.0414734,9.62564516 58.2094787,9.23522581 C58.6715691,9.13777419 59.0414734,8.94225806 59.4107979,8.74674194 C59.8728883,8.35632258 60.2422128,7.96529032 60.5193511,7.47741935 C60.8892553,6.89087097 61.0736277,6.30493548 61.2585798,5.52348387 C61.350766,4.93754839 61.350766,4.44906452 61.2585798,4.05864516 C61.1663936,3.57016129 60.9814415,3.17974194 60.7964894,2.88677419 C60.5193511,2.49574194 60.2422128,2.20277419 59.8728883,1.90980645 C59.4107979,1.71429032 58.9487074,1.51877419 58.3022447,1.42132258 C57.6552021,1.32387097 56.8237872,1.22580645 55.8074202,1.22580645 L48.8778032,1.22580645 L46.3829787,16.365129 L50.9105372,16.365129 Z M52.7583191,4.93754839 L55.0681915,4.93754839 C55.8074202,4.93754839 56.2695106,5.035 56.5466489,5.32858065 C56.7310213,5.52348387 56.8237872,5.91451613 56.7310213,6.30493548 C56.6388351,6.79341935 56.4544628,7.18383871 56.0845585,7.37935484 C55.8074202,7.67232258 55.2531436,7.76977419 54.5139149,7.76977419 L52.2962287,7.76977419 L52.7583191,4.93754839 Z" id="Fill-19" fill="#FFFFFF"></path>
                            <path d="M70.1009149,10.0160645 C71.0250957,10.0160645 71.5793723,10.2115806 71.8565106,10.4070968 C72.1336489,10.6994516 72.2258351,10.9930323 72.1336489,11.4809032 C72.0414628,11.8719355 71.8565106,12.2623548 71.4871862,12.5553226 C71.1172819,12.7508387 70.5630053,12.9463548 69.6388245,12.9463548 L67.6988564,12.9463548 L68.1609468,10.0160645 L70.1009149,10.0160645 Z M69.8237766,16.3645161 C70.9323298,16.3645161 71.6715585,16.2670645 72.1336489,16.1696129 C72.5957394,16.0715484 73.150016,15.8766452 73.6121064,15.681129 C74.166383,15.3881613 74.5357074,15.1926452 74.8134255,14.8996774 C75.2749362,14.6067097 75.5520745,14.1182258 75.8292128,13.6297419 C76.199117,13.0438065 76.3840691,12.457871 76.4762553,11.8719355 C76.5684415,10.9930323 76.4762553,10.2115806 76.199117,9.62503226 C75.8292128,8.94164516 75.3677021,8.55122581 74.6284734,8.35570968 C76.0141649,7.47680645 76.8455798,6.4023871 77.0305319,5.13245161 C77.3076702,3.76506452 76.9383457,2.78870968 75.9219787,2.10470968 C75.18275,1.51877419 73.9814309,1.22580645 72.1336489,1.22580645 L65.1118457,1.22580645 L62.6170213,16.3645161 L69.8237766,16.3645161 Z M70.5630053,4.64396774 C71.2094681,4.64396774 71.6715585,4.74203226 71.8565106,4.74203226 C72.1336489,4.83948387 72.3186011,5.035 72.4107872,5.22990323 C72.5957394,5.42541935 72.5957394,5.7183871 72.5957394,6.01135484 C72.5029734,6.4023871 72.3186011,6.69535484 71.9486968,6.98832258 C71.6715585,7.18383871 71.1172819,7.37874194 70.3780532,7.37874194 L68.6224574,7.37874194 L69.0845479,4.64396774 L70.5630053,4.64396774 Z" id="Fill-21" fill="#FFFFFF"></path>
                            <path d="M80.5502973,1.22580645 L85.170042,1.22580645 L83.5993984,10.602 C83.5066324,11.1879355 83.5066324,11.6764194 83.5993984,11.9693871 C83.6915845,12.2623548 83.8765367,12.5559355 84.2464409,12.7508387 C84.6157654,12.9463548 84.9850899,13.0438065 85.4471803,13.0438065 C86.0936431,13.0438065 86.7406856,12.8482903 87.1100101,12.457871 C87.5721005,12.0674516 87.8498186,11.3834516 88.0341909,10.602 L89.6048345,1.22580645 L94.2245792,1.22580645 L92.7461218,10.1135161 C92.5617494,11.1879355 92.3767973,12.0674516 92.099659,12.7508387 C91.8225207,13.3367742 91.4526165,13.9227097 90.9911058,14.4111935 C90.5290154,14.8996774 89.9747388,15.3881613 89.4204622,15.681129 C88.7734197,16.0715484 88.1263771,16.365129 87.3877282,16.5600323 C86.5557335,16.6580968 85.7243186,16.7555484 84.8929037,16.7555484 C83.8765367,16.7555484 83.0451218,16.6580968 82.3058931,16.5600323 C81.5666643,16.365129 81.0123877,16.0715484 80.5502973,15.681129 C79.9960207,15.2907097 79.6266962,14.8996774 79.3489782,14.4111935 C79.0724197,13.9227097 78.8874675,13.2393226 78.8874675,12.457871 C78.7947016,11.9693871 78.8874675,11.0904839 79.0724197,10.0160645 L80.5502973,1.22580645 Z" id="Fill-23" fill="#FFFFFF"></path>
                            <path d="M108.759388,6.01196774 L104.23183,6.01196774 C104.23183,5.62093548 104.047457,5.23051613 103.862505,5.035 C103.585367,4.84009677 103.215463,4.74203226 102.661186,4.74203226 C102.10691,4.74203226 101.644819,4.84009677 101.367681,5.035 C101.090543,5.23051613 100.998356,5.42603226 100.90617,5.719 C100.90617,6.01196774 100.90617,6.10941935 101.090543,6.30493548 C101.275495,6.50045161 101.737585,6.69535484 102.569,6.89087097 L104.324596,7.37935484 C105.895239,7.86783871 107.003793,8.45377419 107.558069,9.23522581 C108.112926,10.0166774 108.297298,10.8955806 108.112926,11.97 C107.927973,12.8489032 107.650835,13.5329032 107.188745,14.2162903 C106.726654,14.9002903 106.172378,15.4862258 105.618101,15.8766452 C105.063824,16.2676774 104.324596,16.5606452 103.493181,16.8536129 C102.661186,17.049129 101.737585,17.1465806 100.813404,17.1465806 C99.8898032,17.1465806 98.9656223,17.049129 98.1342074,16.7555484 C97.3027926,16.4625806 96.65575,16.0721613 96.1936596,15.5836774 C95.7321489,15.0951935 95.3622447,14.5092581 95.1772926,13.825871 C95.0851064,13.3373871 95.0851064,12.7514516 95.0851064,12.0674516 L99.6126649,12.0674516 C99.6126649,12.5559355 99.7970372,12.9463548 100.074176,13.141871 C100.351894,13.4348387 100.90617,13.5329032 101.644819,13.5329032 C102.291862,13.5329032 102.753952,13.4348387 103.03109,13.2393226 C103.308229,13.0444194 103.400415,12.8489032 103.493181,12.5559355 C103.493181,12.2629677 103.493181,11.97 103.308229,11.7744839 C103.123277,11.5789677 102.661186,11.3840645 101.829771,11.1885484 L100.259128,10.798129 C99.5198989,10.6026129 98.688484,10.3096452 98.0414415,9.9186129 C97.3949787,9.52819355 96.8407021,9.03970968 96.5635638,8.35570968 C96.2864255,7.76977419 96.2864255,7.0863871 96.3786117,6.20748387 C96.5635638,5.32858065 96.8407021,4.64458065 97.3027926,3.96058065 C97.7643032,3.27719355 98.3191596,2.78870968 98.9656223,2.39829032 C99.5198989,1.90980645 100.259128,1.71429032 100.998356,1.5193871 C101.737585,1.32387097 102.476814,1.22580645 103.215463,1.22580645 C104.139644,1.22580645 104.878872,1.32387097 105.618101,1.5193871 C106.35733,1.71429032 106.81884,2.00725806 107.280931,2.30022581 C107.650835,2.59380645 107.927973,2.98422581 108.112926,3.37464516 C108.389484,3.76567742 108.48225,4.15609677 108.574436,4.54712903 C108.667202,4.93754839 108.759388,5.42603226 108.759388,6.01196774" id="Fill-25" fill="#FFFFFF"></path>
                        </g>
                    </g>
                </g>
            </g>
        </g>
    </g>
</svg>
